X: 1976
T: Arthur's Seat
R: hornpipe
M: 4/4
K: Gmajor
K: Bb
f/|b/>f/d/>B/ A/>B/ F/>E/|D/4D/4D/ F/>B/ d/>f/b/>f/|=e/>f/ _e/>f/ d/>f/c/>f/|B/>f/A/>f/ G/>f/F/>f/|
b/>f/d/>B/ A/>B/F/>E/|D/4D/4D/ F/>B/ d/>f/b/>f/|=e/>f/g/>f/ _e/>c/A/>f/|B{a}bB:|
|:^f/|g/>^f/g/>d/ e/>d/e/>c/|f/>=e/f/>^c/ d/>c/d/>B/|e/>d/e/>=B/ c/>B/c/>_B/|A/>c/f/>=e/ f/>^f/g/>a/|
b/>f/d/>B/ A/>B/F/>E/|D/4D/4D/ F/>B/ d/>f/b/>f/|=e/>f/g/>f/ _e/>c/A/>f/|B{a}bB3:|

